X:1
T:Polska : Eklunda, av Viksta Losse
C:(sol) apprise de Martin Coudroy à St Gervais 2008 , fichier abc : Bernard Loffet
L:1/8
Q:234
M:3/4
K:G
|: [gG,,]f/g/ [bG,]g [dG,]B | [c/C,,/]B/c/d/ [e/C,/]g/e/c/ [AD,]c | [BG,,]A/B/ [cG,]c/A/ [BG,]B/G/ | \
 [A3/2D,,3/2]^c/ [d2D,2] D,2 | [gG,,]f/g/ [bG,]g [dG,]B | [c/C,,/]B/c/d/ [e/C,/]g/e/c/ [AD,]c | [BG,,]A/B/ [cG,]c/A/ [BG,]B/G/ | \
 [A/D,,/]B/A/F/ [G2G,2] G,2 :|: [BG,,]B [cG,]c [BG,]B | [A3/2D,,3/2]F/ [D2D,2] D,2 | [BG,,]B [cG,]c [BG,]B | \
 [A3/2D,,3/2]^c/ [d2D,2] D,2 | [BG,,]B [cG,]c [BG,]B | [A3/2D,,3/2]F/ [D2D,2] D,E/F/ | [GG,,]A/B/ [cD,]c/A/ [BG,]B/G/ | \
 [A/D,,/]B/A/F/ [G2G,2] G,2 :| \
W:Created with TablEdit http://www.tabledit.com/ by Bernard Loffet
